images/1152279.svg

<?xml version="1.0" encoding="UTF-8"?>
<svg xmlns="http://www.w3.org/2000/svg" xmlns:xlink="http://www.w3.org/1999/xlink" width="300pt" height="300pt" viewBox="0 0 300 300" version="1.1">
<defs>
<g>
<symbol overflow="visible" id="glyph0-0">
<path style="stroke:none;" d="M 0.453125 1.59375 L 0.453125 -6.34375 L 4.953125 -6.34375 L 4.953125 1.59375 Z M 0.953125 1.09375 L 4.453125 1.09375 L 4.453125 -5.84375 L 0.953125 -5.84375 Z M 0.953125 1.09375 "/>
</symbol>
<symbol overflow="visible" id="glyph0-1">
<path style="stroke:none;" d="M 3.546875 -5.953125 C 2.898438 -5.953125 2.382812 -5.710938 2 -5.234375 C 1.625 -4.753906 1.4375 -4.101562 1.4375 -3.28125 C 1.4375 -2.445312 1.625 -1.789062 2 -1.3125 C 2.382812 -0.832031 2.898438 -0.59375 3.546875 -0.59375 C 4.191406 -0.59375 4.703125 -0.832031 5.078125 -1.3125 C 5.453125 -1.789062 5.640625 -2.445312 5.640625 -3.28125 C 5.640625 -4.101562 5.453125 -4.753906 5.078125 -5.234375 C 4.703125 -5.710938 4.191406 -5.953125 3.546875 -5.953125 Z M 3.546875 -6.6875 C 4.460938 -6.6875 5.195312 -6.375 5.75 -5.75 C 6.300781 -5.132812 6.578125 -4.3125 6.578125 -3.28125 C 6.578125 -2.238281 6.300781 -1.410156 5.75 -0.796875 C 5.195312 -0.179688 4.460938 0.125 3.546875 0.125 C 2.617188 0.125 1.878906 -0.179688 1.328125 -0.796875 C 0.773438 -1.410156 0.5 -2.238281 0.5 -3.28125 C 0.5 -4.3125 0.773438 -5.132812 1.328125 -5.75 C 1.878906 -6.375 2.617188 -6.6875 3.546875 -6.6875 Z M 3.546875 -6.6875 "/>
</symbol>
<symbol overflow="visible" id="glyph0-2">
<path style="stroke:none;" d="M 0.890625 -6.5625 L 2.078125 -6.5625 L 4.984375 -1.078125 L 4.984375 -6.5625 L 5.84375 -6.5625 L 5.84375 0 L 4.65625 0 L 1.75 -5.484375 L 1.75 0 L 0.890625 0 Z M 0.890625 -6.5625 "/>
</symbol>
<symbol overflow="visible" id="glyph0-3">
<path style="stroke:none;" d="M 0.890625 -6.5625 L 1.765625 -6.5625 L 1.765625 -3.875 L 5 -3.875 L 5 -6.5625 L 5.890625 -6.5625 L 5.890625 0 L 5 0 L 5 -3.125 L 1.765625 -3.125 L 1.765625 0 L 0.890625 0 Z M 0.890625 -6.5625 "/>
</symbol>
</g>
</defs>
<g id="surface34009">
<rect x="0" y="0" width="300" height="300" style="fill:rgb(100%,100%,100%);fill-opacity:1;stroke:none;"/>
<path style="fill:none;stroke-width:1.2;stroke-linecap:butt;stroke-linejoin:miter;stroke:rgb(0%,0%,0%);stroke-opacity:1;stroke-miterlimit:10;" d="M 264.75 130.808594 L 257.527344 140.074219 "/>
<path style="fill:none;stroke-width:1.2;stroke-linecap:butt;stroke-linejoin:miter;stroke:rgb(100%,0%,0%);stroke-opacity:1;stroke-miterlimit:10;" d="M 257.527344 140.074219 L 250.300781 149.335938 "/>
<path style="fill:none;stroke-width:1.2;stroke-linecap:butt;stroke-linejoin:miter;stroke:rgb(100%,0%,0%);stroke-opacity:1;stroke-miterlimit:10;" d="M 250.300781 149.335938 L 238.667969 147.710938 "/>
<path style="fill:none;stroke-width:1.2;stroke-linecap:butt;stroke-linejoin:miter;stroke:rgb(0%,0%,0%);stroke-opacity:1;stroke-miterlimit:10;" d="M 238.667969 147.710938 L 227.03125 146.089844 "/>
<path style=" stroke:none;fill-rule:nonzero;fill:rgb(100%,100%,100%);fill-opacity:1;" d="M 246.300781 143.835938 L 254.300781 143.835938 L 254.300781 154.835938 L 246.300781 154.835938 Z M 246.300781 143.835938 "/>
<g style="fill:rgb(100%,0%,0%);fill-opacity:1;">
  <use xlink:href="#glyph0-1" x="246.300781" y="152.499023"/>
</g>
<path style="fill:none;stroke-width:1.2;stroke-linecap:butt;stroke-linejoin:miter;stroke:rgb(0%,0%,0%);stroke-opacity:1;stroke-miterlimit:10;" d="M 227.03125 146.089844 L 212.585938 164.617188 "/>
<path style="fill:none;stroke-width:1.2;stroke-linecap:butt;stroke-linejoin:miter;stroke:rgb(0%,0%,0%);stroke-opacity:1;stroke-miterlimit:10;" d="M 221.226562 144.542969 L 209.671875 159.363281 "/>
<path style="fill:none;stroke-width:1.2;stroke-linecap:butt;stroke-linejoin:miter;stroke:rgb(0%,0%,0%);stroke-opacity:1;stroke-miterlimit:10;" d="M 218.210938 124.3125 L 227.03125 146.089844 "/>
<path style="fill:none;stroke-width:1.2;stroke-linecap:butt;stroke-linejoin:miter;stroke:rgb(0%,0%,0%);stroke-opacity:1;stroke-miterlimit:10;" d="M 212.585938 164.617188 L 189.316406 161.367188 "/>
<path style="fill:none;stroke-width:1.2;stroke-linecap:butt;stroke-linejoin:miter;stroke:rgb(0%,0%,0%);stroke-opacity:1;stroke-miterlimit:10;" d="M 212.585938 164.617188 L 216.996094 175.503906 "/>
<path style="fill:none;stroke-width:1.2;stroke-linecap:butt;stroke-linejoin:miter;stroke:rgb(100%,0%,0%);stroke-opacity:1;stroke-miterlimit:10;" d="M 216.996094 175.503906 L 221.40625 186.394531 "/>
<path style="fill:none;stroke-width:1.2;stroke-linecap:butt;stroke-linejoin:miter;stroke:rgb(0%,0%,0%);stroke-opacity:1;stroke-miterlimit:10;" d="M 189.316406 161.367188 L 180.492188 139.59375 "/>
<path style="fill:none;stroke-width:1.2;stroke-linecap:butt;stroke-linejoin:miter;stroke:rgb(0%,0%,0%);stroke-opacity:1;stroke-miterlimit:10;" d="M 183.308594 161.265625 L 176.25 143.84375 "/>
<path style="fill:none;stroke-width:1.2;stroke-linecap:butt;stroke-linejoin:miter;stroke:rgb(0%,0%,0%);stroke-opacity:1;stroke-miterlimit:10;" d="M 174.867188 179.894531 L 189.316406 161.367188 "/>
<path style="fill:none;stroke-width:1.2;stroke-linecap:butt;stroke-linejoin:miter;stroke:rgb(0%,0%,0%);stroke-opacity:1;stroke-miterlimit:10;" d="M 180.492188 139.59375 L 157.222656 136.34375 "/>
<path style="fill:none;stroke-width:1.2;stroke-linecap:butt;stroke-linejoin:miter;stroke:rgb(0%,0%,0%);stroke-opacity:1;stroke-miterlimit:10;" d="M 180.492188 139.59375 L 194.941406 121.0625 "/>
<path style=" stroke:none;fill-rule:nonzero;fill:rgb(0%,0%,0%);fill-opacity:1;" d="M 142.777344 154.871094 L 160.492188 138.894531 L 153.953125 133.792969 Z M 142.777344 154.871094 "/>
<path style="fill:none;stroke-width:1.2;stroke-linecap:butt;stroke-linejoin:miter;stroke:rgb(0%,0%,0%);stroke-opacity:1;stroke-miterlimit:10;" d="M 142.777344 154.871094 L 119.507812 151.625 "/>
<path style="fill:none;stroke-width:1.2;stroke-linecap:butt;stroke-linejoin:miter;stroke:rgb(0%,0%,100%);stroke-opacity:1;stroke-miterlimit:10;" d="M 151.597656 176.648438 L 147.1875 165.761719 "/>
<path style="fill:none;stroke-width:1.2;stroke-linecap:butt;stroke-linejoin:miter;stroke:rgb(0%,0%,0%);stroke-opacity:1;stroke-miterlimit:10;" d="M 147.1875 165.761719 L 142.777344 154.871094 "/>
<path style="fill:none;stroke-width:1.2;stroke-linecap:butt;stroke-linejoin:miter;stroke:rgb(0%,0%,0%);stroke-opacity:1;stroke-miterlimit:10;" d="M 119.507812 151.625 L 110.683594 129.847656 "/>
<path style="fill:none;stroke-width:1.2;stroke-linecap:butt;stroke-linejoin:miter;stroke:rgb(0%,0%,0%);stroke-opacity:1;stroke-miterlimit:10;" d="M 113.5 151.523438 L 106.441406 134.101562 "/>
<path style="fill:none;stroke-width:1.2;stroke-linecap:butt;stroke-linejoin:miter;stroke:rgb(0%,0%,0%);stroke-opacity:1;stroke-miterlimit:10;" d="M 105.058594 170.152344 L 119.507812 151.625 "/>
<path style="fill:none;stroke-width:1.2;stroke-linecap:butt;stroke-linejoin:miter;stroke:rgb(0%,0%,0%);stroke-opacity:1;stroke-miterlimit:10;" d="M 110.683594 129.847656 L 87.414062 126.601562 "/>
<path style="fill:none;stroke-width:1.2;stroke-linecap:butt;stroke-linejoin:miter;stroke:rgb(0%,0%,0%);stroke-opacity:1;stroke-miterlimit:10;" d="M 87.414062 126.601562 L 72.96875 145.128906 "/>
<path style="fill:none;stroke-width:1.2;stroke-linecap:butt;stroke-linejoin:miter;stroke:rgb(0%,0%,0%);stroke-opacity:1;stroke-miterlimit:10;" d="M 90.328125 131.851562 L 78.773438 146.675781 "/>
<path style="fill:none;stroke-width:1.2;stroke-linecap:butt;stroke-linejoin:miter;stroke:rgb(0%,0%,0%);stroke-opacity:1;stroke-miterlimit:10;" d="M 87.414062 126.601562 L 83.003906 115.710938 "/>
<path style="fill:none;stroke-width:1.2;stroke-linecap:butt;stroke-linejoin:miter;stroke:rgb(100%,0%,0%);stroke-opacity:1;stroke-miterlimit:10;" d="M 83.003906 115.710938 L 78.59375 104.824219 "/>
<path style="fill:none;stroke-width:1.2;stroke-linecap:butt;stroke-linejoin:miter;stroke:rgb(0%,0%,0%);stroke-opacity:1;stroke-miterlimit:10;" d="M 72.96875 145.128906 L 81.789062 166.902344 "/>
<path style="fill:none;stroke-width:1.2;stroke-linecap:butt;stroke-linejoin:miter;stroke:rgb(0%,0%,0%);stroke-opacity:1;stroke-miterlimit:10;" d="M 72.96875 145.128906 L 61.332031 143.503906 "/>
<path style="fill:none;stroke-width:1.2;stroke-linecap:butt;stroke-linejoin:miter;stroke:rgb(100%,0%,0%);stroke-opacity:1;stroke-miterlimit:10;" d="M 61.332031 143.503906 L 49.699219 141.878906 "/>
<path style="fill:none;stroke-width:1.2;stroke-linecap:butt;stroke-linejoin:miter;stroke:rgb(0%,0%,0%);stroke-opacity:1;stroke-miterlimit:10;" d="M 81.789062 166.902344 L 105.058594 170.152344 "/>
<path style="fill:none;stroke-width:1.2;stroke-linecap:butt;stroke-linejoin:miter;stroke:rgb(0%,0%,0%);stroke-opacity:1;stroke-miterlimit:10;" d="M 84.878906 161.753906 L 103.496094 164.351562 "/>
<path style="fill:none;stroke-width:1.2;stroke-linecap:butt;stroke-linejoin:miter;stroke:rgb(0%,0%,0%);stroke-opacity:1;stroke-miterlimit:10;" d="M 105.058594 170.152344 L 113.878906 191.929688 "/>
<path style="fill:none;stroke-width:1.2;stroke-linecap:butt;stroke-linejoin:miter;stroke:rgb(0%,0%,0%);stroke-opacity:1;stroke-miterlimit:10;" d="M 113.878906 191.929688 L 137.148438 195.175781 "/>
<path style="fill:none;stroke-width:1.2;stroke-linecap:butt;stroke-linejoin:miter;stroke:rgb(0%,0%,0%);stroke-opacity:1;stroke-miterlimit:10;" d="M 137.148438 195.175781 L 144.375 185.914062 "/>
<path style="fill:none;stroke-width:1.2;stroke-linecap:butt;stroke-linejoin:miter;stroke:rgb(0%,0%,100%);stroke-opacity:1;stroke-miterlimit:10;" d="M 144.375 185.914062 L 151.597656 176.648438 "/>
<path style="fill:none;stroke-width:1.2;stroke-linecap:butt;stroke-linejoin:miter;stroke:rgb(0%,0%,100%);stroke-opacity:1;stroke-miterlimit:10;" d="M 151.597656 176.648438 L 163.234375 178.273438 "/>
<path style="fill:none;stroke-width:1.2;stroke-linecap:butt;stroke-linejoin:miter;stroke:rgb(0%,0%,0%);stroke-opacity:1;stroke-miterlimit:10;" d="M 163.234375 178.273438 L 174.867188 179.894531 "/>
<path style=" stroke:none;fill-rule:nonzero;fill:rgb(100%,100%,100%);fill-opacity:1;" d="M 148.597656 171.148438 L 155.597656 171.148438 L 155.597656 182.148438 L 148.597656 182.148438 Z M 148.597656 171.148438 "/>
<g style="fill:rgb(0%,0%,100%);fill-opacity:1;">
  <use xlink:href="#glyph0-2" x="148.597656" y="179.811523"/>
</g>
<path style="fill:none;stroke-width:1.2;stroke-linecap:butt;stroke-linejoin:miter;stroke:rgb(100%,0%,0%);stroke-opacity:1;stroke-miterlimit:10;" d="M 49.699219 141.878906 L 42.472656 151.144531 "/>
<path style="fill:none;stroke-width:1.2;stroke-linecap:butt;stroke-linejoin:miter;stroke:rgb(0%,0%,0%);stroke-opacity:1;stroke-miterlimit:10;" d="M 42.472656 151.144531 L 35.25 160.40625 "/>
<path style=" stroke:none;fill-rule:nonzero;fill:rgb(100%,100%,100%);fill-opacity:1;" d="M 45.699219 136.378906 L 53.699219 136.378906 L 53.699219 147.378906 L 45.699219 147.378906 Z M 45.699219 136.378906 "/>
<g style="fill:rgb(100%,0%,0%);fill-opacity:1;">
  <use xlink:href="#glyph0-1" x="45.699219" y="145.041992"/>
</g>
<path style=" stroke:none;fill-rule:nonzero;fill:rgb(100%,100%,100%);fill-opacity:1;" d="M 63.59375 99.324219 L 78.59375 99.324219 L 78.59375 110.324219 L 63.59375 110.324219 Z M 63.59375 99.324219 "/>
<g style="fill:rgb(100%,0%,0%);fill-opacity:1;">
  <use xlink:href="#glyph0-3" x="63.59375" y="107.987305"/>
  <use xlink:href="#glyph0-1" x="70.608398" y="107.987305"/>
</g>
<path style="fill:none;stroke-width:1.2;stroke-linecap:butt;stroke-linejoin:miter;stroke:rgb(0%,0%,0%);stroke-opacity:1;stroke-miterlimit:10;" d="M 194.941406 121.0625 L 218.210938 124.3125 "/>
<path style="fill:none;stroke-width:1.2;stroke-linecap:butt;stroke-linejoin:miter;stroke:rgb(0%,0%,0%);stroke-opacity:1;stroke-miterlimit:10;" d="M 196.503906 126.863281 L 215.121094 129.460938 "/>
<path style=" stroke:none;fill-rule:nonzero;fill:rgb(100%,100%,100%);fill-opacity:1;" d="M 214.40625 180.894531 L 229.40625 180.894531 L 229.40625 191.894531 L 214.40625 191.894531 Z M 214.40625 180.894531 "/>
<g style="fill:rgb(100%,0%,0%);fill-opacity:1;">
  <use xlink:href="#glyph0-1" x="214.40625" y="189.557617"/>
  <use xlink:href="#glyph0-3" x="221.748047" y="189.557617"/>
</g>
</g>
</svg>

<svg xmlns="http://www.w3.org/2000/svg" xmlns:xlink="http://www.w3.org/1999/xlink" width="300pt" height="300pt" viewBox="0 0 300 300"><defs><symbol overflow="visible"><path d="M.453 1.594v-7.938h4.5v7.938zm.5-.5h3.5v-6.938h-3.5zm0 0"/></symbol><symbol overflow="visible" id="a"><path d="M3.547-5.953c-.65 0-1.164.242-1.547.72-.375.48-.563 1.13-.563 1.952 0 .835.188 1.49.563 1.967.383.48.898.72 1.547.72.644 0 1.156-.24 1.53-.72.376-.476.564-1.132.564-1.968 0-.822-.187-1.474-.562-1.954-.375-.477-.887-.72-1.53-.72zm0-.734c.914 0 1.648.312 2.203.937.55.617.828 1.438.828 2.47 0 1.042-.277 1.87-.828 2.483-.555.617-1.29.922-2.203.922-.93 0-1.668-.305-2.22-.922C.774-1.41.5-2.237.5-3.28c0-1.033.273-1.853.828-2.47.55-.625 1.29-.938 2.22-.938zm0 0"/></symbol><symbol overflow="visible" id="b"><path d="M.89-6.563H2.08l2.906 5.485v-5.484h.86V0H4.656L1.75-5.484V0H.89zm0 0"/></symbol><symbol overflow="visible" id="c"><path d="M.89-6.563h.876v2.688H5v-2.688h.89V0H5v-3.125H1.766V0H.89zm0 0"/></symbol></defs><g><path fill="#fff" d="M0 0h300v300H0z"/><path d="M264.75 130.81l-7.223 9.264" stroke-width="1.2" stroke="#000" stroke-miterlimit="10" fill="none"/><path d="M257.527 140.074l-7.226 9.262M250.3 149.336l-11.632-1.625" stroke-width="1.2" stroke="#f00" stroke-miterlimit="10" fill="none"/><path d="M238.668 147.71l-11.637-1.62" stroke-width="1.2" stroke="#000" stroke-miterlimit="10" fill="none"/><path d="M246.3 143.836h8v11h-8zm0 0" fill="#fff"/><use xlink:href="#a" x="246.301" y="152.499" fill="#f00"/><path d="M227.03 146.09l-14.444 18.527M221.227 144.543l-11.555 14.82M218.21 124.313l8.82 21.777M212.586 164.617l-23.27-3.25M212.586 164.617l4.41 10.887" stroke-width="1.2" stroke="#000" stroke-miterlimit="10" fill="none"/><path d="M216.996 175.504l4.41 10.89" stroke-width="1.2" stroke="#f00" stroke-miterlimit="10" fill="none"/><path d="M189.316 161.367l-8.824-21.773M183.31 161.266l-7.06-17.422M174.867 179.895l14.45-18.528M180.492 139.594l-23.27-3.25M180.492 139.594l14.45-18.53" stroke-width="1.2" stroke="#000" stroke-miterlimit="10" fill="none"/><path d="M142.777 154.87l17.715-15.975-6.54-5.102zm0 0"/><path d="M142.777 154.87l-23.27-3.245" stroke-width="1.2" stroke="#000" stroke-miterlimit="10" fill="none"/><path d="M151.598 176.648l-4.41-10.886" stroke-width="1.2" stroke="#00f" stroke-miterlimit="10" fill="none"/><path d="M147.188 165.762l-4.41-10.89M119.508 151.625l-8.824-21.777M113.5 151.523l-7.06-17.42M105.06 170.152l14.448-18.527M110.684 129.848l-23.27-3.246M87.414 126.602L72.97 145.13M90.328 131.852l-11.555 14.824M87.414 126.602l-4.41-10.89" stroke-width="1.2" stroke="#000" stroke-miterlimit="10" fill="none"/><path d="M83.004 115.71l-4.41-10.886" stroke-width="1.2" stroke="#f00" stroke-miterlimit="10" fill="none"/><path d="M72.97 145.13l8.82 21.772M72.97 145.13l-11.638-1.626" stroke-width="1.2" stroke="#000" stroke-miterlimit="10" fill="none"/><path d="M61.332 143.504L49.7 141.88" stroke-width="1.2" stroke="#f00" stroke-miterlimit="10" fill="none"/><path d="M81.79 166.902l23.27 3.25M84.88 161.754l18.616 2.598M105.06 170.152l8.82 21.778M113.88 191.93l23.268 3.246M137.148 195.176l7.227-9.262" stroke-width="1.2" stroke="#000" stroke-miterlimit="10" fill="none"/><path d="M144.375 185.914l7.223-9.266M151.598 176.648l11.636 1.625" stroke-width="1.2" stroke="#00f" stroke-miterlimit="10" fill="none"/><path d="M163.234 178.273l11.633 1.622" stroke-width="1.2" stroke="#000" stroke-miterlimit="10" fill="none"/><path d="M148.598 171.148h7v11h-7zm0 0" fill="#fff"/><use xlink:href="#b" x="148.598" y="179.812" fill="#00f"/><path d="M49.7 141.88l-7.227 9.265" stroke-width="1.2" stroke="#f00" stroke-miterlimit="10" fill="none"/><path d="M42.473 151.145l-7.223 9.26" stroke-width="1.2" stroke="#000" stroke-miterlimit="10" fill="none"/><path d="M45.7 136.38h8v11h-8zm0 0" fill="#fff"/><use xlink:href="#a" x="45.699" y="145.042" fill="#f00"/><path d="M63.594 99.324h15v11h-15zm0 0" fill="#fff"/><g fill="#f00"><use xlink:href="#c" x="63.594" y="107.987"/><use xlink:href="#a" x="70.608" y="107.987"/></g><path d="M194.94 121.063l23.27 3.25M196.504 126.863l18.617 2.598" stroke-width="1.2" stroke="#000" stroke-miterlimit="10" fill="none"/><path d="M214.406 180.895h15v11h-15zm0 0" fill="#fff"/><g fill="#f00"><use xlink:href="#a" x="214.406" y="189.558"/><use xlink:href="#c" x="221.748" y="189.558"/></g></g></svg>
